X: 1
T: Amelia
%: W-14
C: Bob McQuillen \2511981
M: 3/4
R: waltz
K: D
FE |\
"D"D3 E D2 | D2 F3 E | D2 F2 B2 | "F#m"A4 A2 | \
"G"B3 G B2 | "D"A2 F2 E2 | "Bm"D3 B, B,2 | "G"B,4 "A"A,B, |
"D"D3 E D2 | D2 F3 E | D2 F2 B2 | "F#m"A4 A2 | \
"G"B3 c d2 | "D"d2 e2 f2 | "A"e2 c2 A2 | A4 :|
|: ag |\
"D"f3 a f2 | a2 f3 d | "A"e3 c A2 | A4 fe | \
"Bm"d3 B d2 | f2 d2 B2 | "F#m"c3 A F2 | F4 A2 |
"G"G3 B G2 | "D"F2 A3 d | "A"e2 c2 A2 | "Bm"d4 f2 | \
"G"g3 f e2 | "D"a2 f2 d2 | "A"d2 e3 c | "D"d4 :|

%%sep 1 1 500

